X: 20065
T: Jimmy MacKinnon Of Smelt Brook
R: jig
M: 6/8
K: Gmajor
|:c|BAG Bdg|ecd efg|dBG dBG|AFD ABc|
B2 G B/c/dg|e2 c efg|dBG gdB|cAd G2:|
|:a|bgb afa|gfe dBG|A^ce aba|gfe d2 g|
b2 g aff|gg/f/e dBG|cBc Aaf|gGG G2:|

